X: 9065
T: Da Grocer
R: reel
M: 4/4
K: Dmajor
|:(dB)|AD (3DDD (DF)Ac|defd edB<d|BE (3EEE (Ac)de|gefd fdB<d|
AD (3DDD (DF)Ac|defd edB<d|BE (3EEE (Bc)de|fdec d2:|
|:g2|fd (3ddd (fg)af|gefd edB<d|Be (3eee (e^c)e(f|ge)fd edB<d|
AD (3DDD (DF)Ac|defd edBd|BE (3EEE (Bc)d(e|fd)ec d2:|

